assets/svg/icon_channel_title.svg

<svg width="24" height="24" viewBox="0 0 24 24" fill="none" xmlns="http://www.w3.org/2000/svg">
<path d="M12.7381 4.63516C12.7381 4.28437 12.4537 4 12.1029 4C11.7522 4 11.4678 4.28437 11.4678 4.63516V6.3289C11.4678 6.67969 11.7522 6.96406 12.1029 6.96406C12.4537 6.96406 12.7381 6.67969 12.7381 6.3289V4.63516Z" fill="#494949"/>
<path d="M9.56514 6.12188C9.91592 6.12085 10.1995 5.83565 10.1984 5.48487C10.1974 5.13407 9.9122 4.85054 9.56142 4.85157C8.2512 4.8554 7.18974 4.87691 6.33763 5.02149C5.46705 5.1692 4.75245 5.45473 4.17821 6.02898C3.54444 6.66276 3.26317 7.4664 3.12969 8.45929C2.99997 9.42406 2.99998 10.6568 3 12.2132V12.3087C2.99998 13.8651 2.99997 15.0978 3.12969 16.0625C3.26317 17.0554 3.54444 17.8591 4.17821 18.4929C4.81198 19.1266 5.61562 19.4079 6.60851 19.5414C7.57326 19.6711 8.80597 19.6711 10.3623 19.6711H13.8455C15.4018 19.6711 16.6345 19.6711 17.5993 19.5414C18.5921 19.4079 19.3958 19.1266 20.0296 18.4929C20.6633 17.8591 20.9446 17.0554 21.0781 16.0625C21.2078 15.0978 21.2078 13.8651 21.2078 12.3088V12.2132C21.2078 10.6569 21.2078 9.42405 21.0781 8.45929C20.9446 7.4664 20.6633 6.66276 20.0296 6.02898C19.4554 5.45473 18.7408 5.1692 17.8702 5.02149C17.018 4.87691 15.9566 4.8554 14.6464 4.85157C14.2956 4.85054 14.0104 5.13407 14.0094 5.48487C14.0083 5.83565 14.2919 6.12085 14.6427 6.12188C15.9699 6.12575 16.9262 6.1498 17.6577 6.2739C18.3706 6.39487 18.8053 6.60117 19.1313 6.92723C19.4897 7.28563 19.7046 7.77652 19.8191 8.62855C19.9361 9.49885 19.9375 10.6461 19.9375 12.2609C19.9375 13.8757 19.9361 15.023 19.8191 15.8933C19.7046 16.7453 19.4897 17.2362 19.1313 17.5946C18.7729 17.953 18.282 18.1679 17.4301 18.2824C16.5597 18.3994 15.4125 18.4008 13.7976 18.4008H10.4101C8.79531 18.4008 7.64808 18.3994 6.77778 18.2824C5.92575 18.1679 5.43486 17.953 5.07645 17.5946C4.71804 17.2362 4.50322 16.7453 4.38867 15.8933C4.27166 15.023 4.27031 13.8757 4.27031 12.2609C4.27031 10.6461 4.27166 9.49885 4.38867 8.62855C4.50322 7.77652 4.71804 7.28563 5.07645 6.92723C5.40251 6.60117 5.83717 6.39487 6.55014 6.2739C7.28157 6.1498 8.23792 6.12575 9.56514 6.12188Z" fill="#494949"/>
<path d="M8.08203 10.9867C8.08203 10.6359 8.3664 10.3516 8.71719 10.3516H15.4922C15.843 10.3516 16.1273 10.6359 16.1273 10.9867C16.1273 11.3375 15.843 11.6219 15.4922 11.6219H8.71719C8.3664 11.6219 8.08203 11.3375 8.08203 10.9867Z" fill="#494949"/>
<path d="M8.71719 13.3125C8.3664 13.3125 8.08203 13.5969 8.08203 13.9477C8.08203 14.2984 8.3664 14.5828 8.71719 14.5828H13.375C13.7258 14.5828 14.0101 14.2984 14.0101 13.9477C14.0101 13.5969 13.7258 13.3125 13.375 13.3125H8.71719Z" fill="#494949"/>
</svg>

<svg xmlns="http://www.w3.org/2000/svg" width="24" height="24" fill="none"><path fill="#494949" d="M12.738 4.635a.635.635 0 0 0-1.27 0V6.33a.635.635 0 0 0 1.27 0z"/><path fill="#494949" d="M9.565 6.122a.635.635 0 1 0-.004-1.27c-1.31.003-2.371.025-3.223.17-.87.147-1.586.433-2.16 1.007-.634.634-.915 1.437-1.048 2.43C3 9.424 3 10.657 3 12.213v.096c0 1.556 0 2.789.13 3.754.133.992.414 1.796 1.048 2.43s1.438.915 2.43 1.048c.965.13 2.198.13 3.754.13h3.483c1.557 0 2.79 0 3.754-.13.993-.133 1.797-.414 2.43-1.048s.916-1.438 1.05-2.43c.129-.965.129-2.198.129-3.754v-.096c0-1.556 0-2.789-.13-3.754-.133-.993-.415-1.796-1.048-2.43-.575-.574-1.29-.86-2.16-1.008-.852-.144-1.913-.166-3.224-.17a.635.635 0 1 0-.003 1.27c1.327.005 2.283.029 3.015.153.713.12 1.147.327 1.473.653.359.359.574.85.688 1.702.117.87.119 2.017.119 3.632s-.002 2.762-.119 3.632c-.114.852-.33 1.343-.688 1.702-.358.358-.849.573-1.7.687-.871.117-2.019.119-3.633.119H10.41c-1.615 0-2.762-.002-3.632-.119-.852-.114-1.343-.329-1.702-.687-.358-.359-.573-.85-.687-1.702-.117-.87-.119-2.017-.119-3.632s.002-2.762.119-3.632c.114-.852.329-1.343.687-1.702.327-.326.761-.532 1.474-.653.732-.124 1.688-.148 3.015-.152"/><path fill="#494949" d="M8.082 10.987c0-.351.284-.635.635-.635h6.775a.635.635 0 1 1 0 1.27H8.717a.635.635 0 0 1-.635-.635M8.717 13.313a.635.635 0 0 0 0 1.27h4.658a.635.635 0 0 0 0-1.27z"/></svg>
